ticket-percent.svg

<svg fill="currentColor" viewBox="0 0 24 24"><path d="M4 4a2 2 0 0 0-2 2v4a2 2 0 0 1 2 2 2 2 0 0 1-2 2v4a2 2 0 0 0 2 2h16a2 2 0 0 0 2-2v-4a2 2 0 0 1-2-2 2 2 0 0 1 2-2V6a2 2 0 0 0-2-2zm11.5 3L17 8.5 8.5 17 7 15.5zm-6.69.04c.98 0 1.77.79 1.77 1.77a1.77 1.77 0 0 1-1.77 1.77c-.98 0-1.77-.79-1.77-1.77a1.77 1.77 0 0 1 1.77-1.77m6.38 6.38c.98 0 1.77.79 1.77 1.77a1.77 1.77 0 0 1-1.77 1.77c-.98 0-1.77-.79-1.77-1.77a1.77 1.77 0 0 1 1.77-1.77"/></svg>

<svg  viewBox="0 0 24 24" fill="currentColor"><path  d="M4,4A2,2 0 0,0 2,6V10C3.11,10 4,10.9 4,12A2,2 0 0,1 2,14V18A2,2 0 0,0 4,20H20A2,2 0 0,0 22,18V14A2,2 0 0,1 20,12C20,10.89 20.9,10 22,10V6C22,4.89 21.1,4 20,4H4M15.5,7L17,8.5L8.5,17L7,15.5L15.5,7M8.81,7.04C9.79,7.04 10.58,7.83 10.58,8.81A1.77,1.77 0 0,1 8.81,10.58C7.83,10.58 7.04,9.79 7.04,8.81A1.77,1.77 0 0,1 8.81,7.04M15.19,13.42C16.17,13.42 16.96,14.21 16.96,15.19A1.77,1.77 0 0,1 15.19,16.96C14.21,16.96 13.42,16.17 13.42,15.19A1.77,1.77 0 0,1 15.19,13.42Z"/></svg>
